X:1
T:Bochum, CMD
T:Bochum, CMD
T:Alexander Van Alstyne, 1868
T:Public Domain Courtesy of the Cyber Hymnal™
C:Alexander Van Alstyne, 1868
Z:Public Domain
Z:Courtesy of the Cyber Hymnal™
%%score ( 1 2 ) ( 3 4 )
L:1/8
Q:1/4=106
M:4/4
K:A
V:1 treble 
V:2 treble 
V:3 bass 
V:4 bass 
V:1
 [CA]2 | [CE]2 (FG) [CA]2 (Bc) | [Ed]2 [Ed]2 [Ec]2 (BA) | [EG]2 [EA]2 [EB]2 (cB) | [EB]6 [Ec]2 | %5
 [CE]2 (FG) [CA]2 (Bc) | [Ed]2 [Ed]2 [Ec]2 (BA) | [DG]2 [CA]2 [FB]2 B2 | [CA]6 E2 | %9
 [Ee]2 (dc) [Ed]2 E2 | [Ed]2 (cB) [Ec]2 [EA]2 | [EG]2 [EA]2 [Ed]2 [Ec]2 | [EB]6 [Ec]2 | %13
 [CE]2 (FG) [CA]2 (Bc) | [Ed]2 [Ed]2 [Ec]2 [EB]2 | [Ee]2 (dc) [FB]2 B2 | [CA]6 |] %17
V:2
 x2 | x2 D2 x E2 x | x6 E2 | x6 E2 | x8 | x2 D2 x E2 x | x6 E2 | x6 (ED) | x6 E2 | x2 E2 x E2 x | %10
 x2 E2 x4 | x8 | x8 | x2 D2 x E2 x | x8 | x2 E2 x (FD) x | x6 |] %17
V:3
 [A,,A,]2 | [A,,A,]2 [A,,A,]2 [A,,A,]2 (G,A,) | [E,B,]2 [G,B,]2 A,2 (DC) | %3
 [E,B,]2 [E,C]2 [E,G,]2 A,2 | [E,G,]6 [A,,A,]2 | [A,,A,]2 [A,,A,]2 [A,,A,]2 (G,A,) | %6
 [E,B,]2 [G,B,]2 A,2 (DC) | [E,B,]2 [F,A,]2 [D,A,]2 [E,G,]2 | [A,,A,]6 E,2 | %9
 [E,C]2 (B,A,) [E,B,]2 E,2 | [E,B,]2 (A,G,) [A,,A,]2 [A,,C]2 | B,2 [C,A,]2 [B,,G,]2 [A,,A,]2 | %12
 [E,G,]6 [A,,A,]2 | [A,,A,]2 [A,,A,]2 [A,,A,]2 (G,A,) | [E,B,]2 [G,B,]2 A,2 G,2 | %15
 [C,A,]2 ([B,,G,][A,,A,]) [D,A,]2 [E,G,]2 | [A,,A,]6 |] %17
V:4
 x2 | x6 E,2 | x4 A,2 E,2 | x6 (A,,C,) | x8 | x6 E,2 | x4 A,2 E,2 | x8 | x6 E,2 | x2 E,2 x E,2 x | %10
 x2 E,2 x4 | (E,D,) x6 | x8 | x6 E,2 | x4 A,2 (E,D,) | x8 | x6 |] %17

